Obsidian/actions/16s/edit-redo-symbolic.svg

<svg height="16" width="16" xmlns="http://www.w3.org/2000/svg"><path d="m15 4-6.5 1.21875.8125.84375 5.5-1.03125zm-11.34375 1.34375-2.65625.71875c.091197.3099114.2103043.6089099.34375.90625l2.3125-.625c.1931848.58251.4887679 1.1291493.9375 1.59375 1.5412567 1.5957535 4.0380236 1.6182652 5.625.09375v-.03125-.96875l-.53125.4375c-1.5702283 1.0726601-3.7136319.8976672-5.09375-.53125-.4487321-.4646009-.7443152-1.01124-.9375-1.59375zm10.161051 5.386202 1.182699-6.729952-6.5001124 1.224518 1.7346264 1.7959611c-1.5859315 1.542364-4.0793398 1.5104273-5.6264927-.0914308-.4487321-.4646007-.7718978-1.0109973-.9650826-1.5935073l-2.6429387.7314451c.3126765 1.0625534.8733634 2.0667231 1.6841639 2.9061921 2.602877 2.6949108 6.8416863 2.6880178 9.4994361.0653058z" fill="#bebebe"/></svg>

<?xml version="1.0" encoding="UTF-8" standalone="no"?>
<!-- Created with Inkscape (http://www.inkscape.org/) -->

<svg
   xmlns:dc="http://purl.org/dc/elements/1.1/"
   xmlns:cc="http://creativecommons.org/ns#"
   xmlns:rdf="http://www.w3.org/1999/02/22-rdf-syntax-ns#"
   xmlns:svg="http://www.w3.org/2000/svg"
   xmlns="http://www.w3.org/2000/svg"
   xmlns:xlink="http://www.w3.org/1999/xlink"
   xmlns:sodipodi="http://sodipodi.sourceforge.net/DTD/sodipodi-0.dtd"
   xmlns:inkscape="http://www.inkscape.org/namespaces/inkscape"
   width="16"
   height="16"
   id="svg2"
   sodipodi:version="0.32"
   inkscape:version="0.91 r13725"
   version="1.0"
   sodipodi:docname="edit-redo-symbolic.svg"
   inkscape:output_extension="org.inkscape.output.svg.inkscape">
  <defs
     id="defs4">
    <inkscape:perspective
       sodipodi:type="inkscape:persp3d"
       inkscape:vp_x="0 : 8 : 1"
       inkscape:vp_y="0 : 1000 : 0"
       inkscape:vp_z="16 : 8 : 1"
       inkscape:persp3d-origin="8 : 5.3333333 : 1"
       id="perspective14" />
    <linearGradient
       id="StandardGradient"
       gradientTransform="scale(1.4142136,0.7071068)"
       x1="5.5256395"
       y1="5.6568542"
       x2="5.5256395"
       y2="15.573743"
       gradientUnits="userSpaceOnUse">
      <stop
         style="stop-color:#000000;stop-opacity:0.86274511;"
         offset="0"
         id="stop3308" />
      <stop
         style="stop-color:#000000;stop-opacity:0.47058824;"
         offset="1"
         id="stop3310" />
    </linearGradient>
    <inkscape:perspective
       id="perspective3648"
       inkscape:persp3d-origin="0.5 : 0.33333333 : 1"
       inkscape:vp_z="1 : 0.5 : 1"
       inkscape:vp_y="0 : 1000 : 0"
       inkscape:vp_x="0 : 0.5 : 1"
       sodipodi:type="inkscape:persp3d" />
    <linearGradient
       inkscape:collect="always"
       xlink:href="#StandardGradient"
       id="linearGradient3623"
       gradientUnits="userSpaceOnUse"
       gradientTransform="matrix(1.4142136,0,0,0.7071068,-20,0)"
       x1="5.5256395"
       y1="5.6568542"
       x2="5.5256395"
       y2="15.573743" />
    <clipPath
       clipPathUnits="userSpaceOnUse"
       id="clipPath3630">
      <path
         style="fill:#ff00ff;fill-opacity:1;stroke:none;display:inline"
         d="m -20,0 0,16 16,0 0,-16 -16,0 z m 15,4 -1.1875,6.71875 -1.625,-1.6875 c -2.65775,2.622712 -6.897123,2.632411 -9.5,-0.0625 C -18.123301,8.129281 -18.687323,7.1250534 -19,6.0625 l 2.65625,-0.71875 c 0.193185,0.58251 0.488768,1.1291495 0.9375,1.59375 1.547153,1.6018583 4.070318,1.636114 5.65625,0.09375 L -11.5,5.21875 -5,4 z"
         id="path3632" />
    </clipPath>
    <linearGradient
       inkscape:collect="always"
       xlink:href="#StandardGradient"
       id="linearGradient5021"
       gradientUnits="userSpaceOnUse"
       gradientTransform="scale(1.4142136,0.7071068)"
       x1="5.5256395"
       y1="5.6568542"
       x2="5.5256395"
       y2="15.573743" />
    <linearGradient
       inkscape:collect="always"
       xlink:href="#StandardGradient"
       id="linearGradient5025"
       gradientUnits="userSpaceOnUse"
       gradientTransform="scale(1.4142136,0.7071068)"
       x1="5.5256395"
       y1="5.6568542"
       x2="5.5256395"
       y2="15.573743" />
  </defs>
  <sodipodi:namedview
     id="base"
     pagecolor="#ffffff"
     bordercolor="#9a9a9a"
     borderopacity="1"
     inkscape:pageopacity="0.0"
     inkscape:pageshadow="2"
     inkscape:zoom="18.863371"
     inkscape:cx="-18.971801"
     inkscape:cy="1.1519662"
     inkscape:document-units="px"
     inkscape:current-layer="layer3"
     showgrid="true"
     inkscape:showpageshadow="false"
     showguides="true"
     inkscape:guide-bbox="true"
     inkscape:window-width="1920"
     inkscape:window-height="1004"
     inkscape:window-x="0"
     inkscape:window-y="25"
     inkscape:window-maximized="1">
    <inkscape:grid
       type="xygrid"
       id="grid3672"
       visible="true"
       enabled="true" />
  </sodipodi:namedview>
  <metadata
     id="metadata7">
    <rdf:RDF>
      <cc:Work
         rdf:about="">
        <dc:format>image/svg+xml</dc:format>
        <dc:type
           rdf:resource="http://purl.org/dc/dcmitype/StillImage" />
      </cc:Work>
    </rdf:RDF>
  </metadata>
  <g
     inkscape:groupmode="layer"
     id="layer3"
     inkscape:label="Arrow"
     style="display:inline">
    <path
       id="BevelShadow"
       style="opacity:1;fill:#bebebe;fill-opacity:1;stroke:none;stroke-width:1.00000024;stroke-linecap:round;stroke-linejoin:miter;stroke-miterlimit:4;stroke-dasharray:none;stroke-opacity:1;display:inline"
       d="M 15,4 8.5,5.21875 9.3125,6.0625 14.8125,5.03125 15,4 Z M 3.65625,5.34375 1,6.0625 c 0.091197,0.3099114 0.2103043,0.6089099 0.34375,0.90625 l 2.3125,-0.625 c 0.1931848,0.58251 0.4887679,1.1291493 0.9375,1.59375 1.5412567,1.5957535 4.0380236,1.6182652 5.625,0.09375 l 0,-0.03125 0,-0.96875 -0.53125,0.4375 C 8.1172717,8.5414101 5.9738681,8.3664172 4.59375,6.9375 4.1450179,6.4728991 3.8494348,5.92626 3.65625,5.34375 Z M 13.817301,10.729952 15,4 8.4998876,5.224518 10.234514,7.0204791 C 8.6485825,8.5628431 6.1551742,8.5309064 4.6080213,6.9290483 4.1592892,6.4644476 3.8361235,5.918051 3.6429387,5.335541 L 1,6.0669861 C 1.3126765,7.1295395 1.8733634,8.1337092 2.6841639,8.9731782 5.2870409,11.668089 9.5258502,11.661196 12.1836,9.038484 l 1.633701,1.691468 z" />
  </g>
</svg>
